X: 128
T: Xinjiang hao
%%abc-version 2.0
%%abcx-abcm2ps-target-version 5.9.1 (29 Sep 2008)
%%abc-creator hum2abc beta
%%abcx-conversion-date 2013/10/02 07:44:27
%%abc-edited-by Helmut Schaffrath
%%humdrum-veritas 3898718503
%%humdrum-veritas-data 892094221
%%continueall 1
%%barnumbers 0
L: 1/16
M: 3/4
K: F
z2 F F [I:setbarnb 1]| 
F2 G2 A3 F | 
G2 G2 D z G A | 
B2 c2 d f d c | 
c2 (3B A B G2 d f | 
c8- | 
c4z2 c c | 
c2 B A G> B A G | 
F2 G B _E z E D | 
C2 G2 F2 _E2 | 
D2 C F F _E/ F< D C/ | 
C8- | 
C4z2 c c | 
c2 B A G> B A G | 
F2 G B _E z E D | 
C2 G2 F2 _E2 | 
D2 C F F _E/ F< D C/ | 
C8- | 
C4c c c2 c2 c f | 
[M:2/4]f2 _e2 d3 c | 
B4G2 c2 | 
d2 c f f _e/ f< d c/ | 
c8- | 
c4z2 c c | 
c2 B A G> B A G | 
F2 G B _E z E D | 
C2 G2 F2 _E2 | 
D2 C F F _E/ F< D F/ | 
C8- | 
C4z2 c c | 
c2 B A G> B A G | 
F2 G B _E z _e d | 
c2 g2 f2 _e2 | 
d2 c f f _e/ f< d f/ | 
c8- | 
c4 |]  



